svg/alert_triangle_negative.svg

<?xml version="1.0" encoding="UTF-8" standalone="no"?>
<!-- Created with Inkscape (http://www.inkscape.org/) -->
<svg id="svg8" xmlns:rdf="http://www.w3.org/1999/02/22-rdf-syntax-ns#" xmlns="http://www.w3.org/2000/svg" xmlns:osb="http://www.openswatchbook.org/uri/2009/osb" height="48" width="48" version="1.1" xmlns:cc="http://creativecommons.org/ns#" viewBox="0 0 12.7 12.7" xmlns:dc="http://purl.org/dc/elements/1.1/">
 <title id="title4753">UIO-icon</title>
 <metadata id="metadata5">
  <rdf:RDF>
   <cc:Work rdf:about="">
    <dc:format>image/svg+xml</dc:format>
    <dc:type rdf:resource="http://purl.org/dc/dcmitype/StillImage"/>
    <dc:title>UIO-icon</dc:title>
    <dc:creator>
     <cc:Agent>
      <dc:title>Joaquín Urbano</dc:title>
     </cc:Agent>
    </dc:creator>
    <dc:rights>
     <cc:Agent>
      <dc:title>GPL</dc:title>
     </cc:Agent>
    </dc:rights>
   </cc:Work>
  </rdf:RDF>
 </metadata>
 <g id="layer1" fill="#333" transform="translate(0,-284.3)">
  <path id="rect884" d="m0 0v48h48v-48zm24 4 20 40h-40zm-1.5605 12.832 0.19727 15.91h2.543l0.21289-15.91zm1.5527 19.139c-0.54812 1e-8 -0.96384 0.15799-1.248 0.47266-0.27406 0.30451-0.41211 0.68386-0.41211 1.1406 0 0.45677 0.13805 0.83807 0.41211 1.1426 0.28421 0.29436 0.69993 0.44141 1.248 0.44141 0.54812 0 0.96384-0.14704 1.248-0.44141 0.28421-0.30451 0.42773-0.68581 0.42773-1.1426 0-0.45677-0.14352-0.83611-0.42773-1.1406-0.28421-0.31466-0.69993-0.47266-1.248-0.47266z" fill-rule="evenodd" transform="matrix(.26458 0 0 .26458 0 284.3)"/>
 </g>
</svg>

<svg width="48" height="48" viewBox="0 0 48 48" fill="none" xmlns="http://www.w3.org/2000/svg">
<path fill-rule="evenodd" clip-rule="evenodd" d="M0 0V47.9994H47.9994V0H0ZM23.9997 3.99995L43.9995 43.9995H3.99995L23.9997 3.99995ZM22.4392 16.8318L22.6365 32.7416H25.1795L25.3923 16.8318H22.4392ZM23.9919 35.9706C23.4438 35.9706 23.0281 36.1285 22.7439 36.4432C22.4699 36.7477 22.3318 37.1271 22.3318 37.5838C22.3318 38.0406 22.4699 38.4218 22.7439 38.7264C23.0281 39.0207 23.4438 39.1678 23.9919 39.1678C24.54 39.1678 24.9557 39.0207 25.2399 38.7264C25.5241 38.4219 25.6676 38.0406 25.6676 37.5838C25.6676 37.127 25.5241 36.7477 25.2399 36.4432C24.9557 36.1285 24.54 35.9706 23.9919 35.9706Z" fill="#333333"/>
</svg>
